public/icons/close.svg

<svg xmlns="http://www.w3.org/2000/svg" width="20" height="20" fill="none"><path fill="#000" d="m2 20-2-2 8-8-8-8 2-2 8 8 8-8 2 2-8 8 8 8-2 2-8-8-8 8Z"/></svg>

<svg width="20" height="20" viewBox="0 0 20 20" fill="none" xmlns="http://www.w3.org/2000/svg">
<path d="M2 20L0 18L8 10L0 2L2 0L10 8L18 0L20 2L12 10L20 18L18 20L10 12L2 20Z" fill="black"/>
</svg>
